X: 42620
T: Whinny Hills Of Leitrim, The
R: slip jig
M: 9/8
K: Gmajor
|:A2 {B}A dcA d2c|A2 {B}A dcA GFG|A2 {B}A dcA d2 {d}e|fgf efe dcA:|
|:GBB GBd g2 {a}g|GBB GBB AFD|GBB GBd g2 {a}g|fgf efe dBA:|

